X: 1191
T: Frayleleh
B: ralph
B: steve tunes
M:4/4
Q: 1/4=100
K:D min
V:1 
D2F2 A2d2|f8|gf ed ed ^cd|(e4 e)A BA|
B2ed e3d|(3^cde (3dcB A4|ed ^cB AG FE|D8:|
Ad fe dc BA|cB2B B4|GB ed cG AB|B(A2 A2)E FG|
A2A2 ^c2c2|ea2a a4|ze2d ^cB A/G/F/E/|D8:|
A2[^G2A2] A2[A2B2]|Ad2d D2d2|zB2B GA Bc|BA2^G A4|
BAG2GFE2|[EG][DF][^C2E2] [CE][B,D][A,2C2]|A,B, ^CD ED CE|D8:|
% abcbook-tune_id 63454077d3b724e16a6dbc4a


% abcbook-boost 0
% abcbook-tablature 
% abcbook-transpose 
% abcbook-lastupdated 1666001588673
% abcbook-soundfonts 
% abcbook-repeats 3
% Titles One title
% Transcriptions Only 1 transcription
% Movement Has some stepwise movement
% Mode minor
% Key D
% Time_signature 4/4
% Has_accompaniment_chords No chords

